X:1
T: The Back of the Change
C:
R:Reel
I:speed 232
Q:232
K:Am
M:4/4
L:1/8
|:A2AG Ad dc|A2AG Ec cG|A2AG Ad dc|Ac GA ED EG|
A2AG Ad dc|A2AG Ec cG|A2AG Ad dc|Ac GE EDD2|
ed ((3ddd) ec ((3ccc)|ed ((3ddd) ab ag|ed ((3ddd) ed cA|GA cd e2d2|
ed ((3ddd) ec ((3ccc)|ed ((3ddd) ab ag|eg de cd cA|GA cd e2A2:|
